X:1
T:Title
%%score { ( 1 3 ) | ( 2 4 ) }
L:1/8
M:4/4
K:Bb
V:1 treble nm="Grand Piano"
V:3 treble 
V:2 bass 
V:4 bass 
V:1
 z4 z2[Q:1/4=100] [DF][CE] | [B,D]2 [DF]2 [Fd]3 [FB] | [GB]2 [EG]2 [DF]3 [CE] | %3
 [B,D]2 [DF]2 [FB]2 [Fd]2 | d4 c2 c2 | [Fd]2 [Fd]2 [DB]3 [Fc] | [GB]2 [GB]2 G3 G | %7
 F2 F2 [FB]2 [Fd]2 | c4 z4 | A2 A2 A3 B | c2 c2 c3 [FA] | [FB]2 [FB]2 [FB]3 [Fc] | %12
 [Fd]2 [Fd]2 [Fc]3 [Fc] | [Fd]2 [Fd]2 [DB]3 [Fc] | [GB]2 [GB]2 G3 G | F2 F2 [FB]2 [Fd]2 | %16
[M:7/8] c- c3 z z2 |[M:1/4] [DB]2 |[M:4/4] [Ec]6 z2 | [DB]4 z4 | [B,GB]3 [Gc] [GB]2 [EG]2 | %21
[M:3/4] [DF]6 |[M:1/4] [B,FB]2 |[M:4/4] [Fc]6 z2 |[M:9/8] z2 B z3 z3 |[M:4/4] F3 B d2 c2 | %26
[M:3/4] [DB]6 |] %27
V:2
 z4 z2 [B,,F,]2 | [B,,F,]2 [B,,B,]2 [B,,B,]3 [D,B,] | [E,B,]2 [E,B,]2 [B,,B,]3 [A,,F,] | %3
 [B,,F,]2 [B,,B,]2 [D,B,]2 [B,,B,]2 | [F,B,F]4 [F,A,F]2 [F,A,F]2 | %5
 [B,,B,]2 [B,,B,]2 [B,,F,]3 [D,B,] | [E,B,]2 [E,B,]2 [E,B,E]3 [E,B,E] | %7
 [F,B,D]2 [E,C]2 [D,B,]2 [B,,B,]2 | F2 z2 z4 | [F,CF]2 [F,CF]2 [F,CF]3 [F,B,D] | %10
 [F,A,E]2 [F,A,E]2 [F,A,E]3 [E,C] | [D,B,]2 [D,B,]2 [D,B,]3 [C,A,] | %12
 [B,,B,]2 [D,B,]2 [F,A,]3 [F,A,] | [B,,B,]2 [B,,B,]2 [B,,B,]3 [D,B,] | %14
 [E,B,]2 [E,B,]2 [E,B,E]3 [E,B,E] | [F,B,D]2 [E,C]2 [D,B,]2 [B,,B,]2 |[M:7/8] F2 z z z z2 | %17
[M:1/4] [B,,B,]2 |[M:4/4] [F,A,]2 F,2 E,[F,B,D][F,A,F][F,A,E] | [B,,B,]2 B,,2 B,,2 D,2 | %20
 E,3 [E,B,] [E,B,]2 [E,B,]2 |[M:3/4] [B,,B,]2 B,,2 B,,2 |[M:1/4] D,2 | %23
[M:4/4] [F,A,]2 F,2 F,[K:treble][F,CF][F,B,F][F,A,F] | %24
[M:9/8] [B,F]2[K:bass] [D,B,]- [D,B,] [E,B,E]2- [E,B,E] [E,G,E]2 | %25
[M:4/4] [F,B,D]3 [F,DF] [F,B,F]2 [F,,F,A,E]2 |[M:3/4] [B,,B,]6 |] %27
V:3
 x8 | x8 | x8 | x8 | x8 | x8 | x8 | x8 | z2 E2 [DB]2 [DB]2 | x8 | x8 | x8 | x8 | x8 | x8 | x8 | %16
[M:7/8] z2 E2 [DB]3 |[M:1/4] x2 |[M:4/4] z2 A,2 A,Bdc | z2 F,2 [B,DF]2 [B,FB]2 | x8 | %21
[M:3/4] z2 B,2 B,2 |[M:1/4] x2 |[M:4/4] z2 A,2 A,edc |[M:9/8] d2 F- [FA] G2- G B2 |[M:4/4] x8 | %26
[M:3/4] x6 |] %27
V:4
 x8 | x8 | x8 | x8 | x8 | x8 | x8 | x8 | [F,A,]4 [B,,B,]2 [B,,B,]2 | x8 | x8 | x8 | x8 | x8 | x8 | %15
 x8 |[M:7/8] [F,A,]- [F,A,]3 [B,,B,]3 |[M:1/4] x2 |[M:4/4] x8 | x8 | x8 |[M:3/4] x6 |[M:1/4] x2 | %23
[M:4/4] x5[K:treble] x3 |[M:9/8] x2[K:bass] x7 |[M:4/4] x8 |[M:3/4] x6 |] %27

